!!!OTL: FREUDVOLL UND LEIDVOLL
!!!ARE: Europa, Mitteleuropa, Deutschland
!!!SCT: F0938
!!!YEM: Copyright 1995, estate of Helmut Schaffrath.
**kern
*ICvox
*Ivox
*M2/4
*k[b-e-a-]
*E-:
=1
{8.e-
16B-
8B-
16r
16B-
=2
8.B-
16G
8G
16r}
{16G
=3
8B-
8A-
8F
8D
=4
4E-
4r}
=5
{8.e-
16c
8c
16r
16c
=6
8.c
16G
8G
16r}
{16G
=7
4G
8An
8Bn
=8
4.c
8r}
=9
{4B-
8c
8d
=10
8.e-
16B-
8B-
16r}
{16B-
=11
8.B-
16An
8A-
16r
16A-
=12
4G
4r}
=13
{4.e-
16d
16e-
=14
4.f}
{16B-
16B-
=15
4g
8.f
16d
=16
4.e-
8r}
=17
{4e-
16f
16e-
16d
16e-
=18
4.f}
{16e-
16c
=19
4g
16g
16a-
16f
16d
=20
4.e-
8r}
==
!!!AGN: Liebes - Lied
!!!ONB: ESAC (Essen Associative Code) Database: FINK
!!!AMT: simple duple
!!!AIN: vox
!!!EED: Helmut Schaffrath
!!!EEV: 1.0
*-
